public/img/events/day-of-the-dead.svg

<svg width="200" height="200" viewBox="0 0 200 200" fill="none" xmlns="http://www.w3.org/2000/svg">
<g clip-path="url(#clip0_501_31136)">
<path d="M101.138 0.000839771C91.4912 0.280646 81.8234 0.406562 72.1841 0.889228C63.5329 1.32293 54.8248 2.56806 47.0906 6.62526C40.2663 10.1998 34.9846 15.9638 32.0843 23.0219C30.5772 26.6874 29.8379 30.7166 30.0299 34.6758C30.2502 39.2227 31.8354 43.4617 32.8733 47.8547C35.0272 56.9414 32.0416 65.8463 30.7976 74.828C29.6389 83.2152 30.3853 91.9172 33.5984 99.8147C35.0201 103.312 36.8613 106.6 39.3493 109.482C41.489 111.965 44.0552 114.036 46.6783 116.002C51.5833 119.681 56.8579 123.095 59.8933 128.579C61.7557 131.944 62.36 135.665 63.149 139.372C63.9452 143.108 65.1323 147.074 68.5587 149.278C71.914 151.439 76.3284 150.949 80.1245 150.879C85.0934 150.788 90.0552 150.649 95.0171 150.46C97.498 150.362 99.9789 150.257 102.46 150.138C104.735 150.026 104.749 146.528 102.46 146.64C97.498 146.878 92.5361 147.067 87.5672 147.207C85.2 147.277 82.8399 147.333 80.4728 147.375C78.397 147.417 76.2929 147.536 74.2172 147.396C72.7812 147.298 71.2955 146.969 70.1226 146.109C68.8146 145.15 68.054 143.639 67.5493 142.149C66.3195 138.554 66.0707 134.707 64.848 131.104C63.7248 127.795 61.9619 124.794 59.6373 122.164C57.5901 119.849 55.1518 117.918 52.6709 116.065C47.6664 112.329 42.5482 108.832 39.2853 103.389C35.3187 96.7719 33.6695 88.8184 33.8045 81.1936C33.968 72.2958 37.2167 63.7477 37.238 54.8359C37.2522 50.338 36.0935 46.1269 34.9064 41.8179C33.8401 37.9426 33.1719 34.0323 33.7903 30.0241C34.8495 23.1548 38.809 16.7123 44.368 12.4522C50.7231 7.58359 58.9336 5.548 66.81 4.77853C70.9614 4.37282 75.1413 4.26089 79.3141 4.14197C84.219 4.00207 89.1311 3.85517 94.0361 3.71527C96.4032 3.64532 98.7633 3.57537 101.13 3.51241C103.419 3.43547 103.427 -0.0621167 101.138 0.000839771Z" fill="black"/>
<path d="M73.1728 173.229C82.8903 173.229 92.6149 173.229 102.332 173.229C104.621 173.229 104.621 169.731 102.332 169.731C92.6149 169.731 82.8903 169.731 73.1728 169.731C70.8909 169.731 70.8838 173.229 73.1728 173.229Z" fill="black"/>
<path d="M71.0032 171.536C70.598 174.67 70.3279 178.202 72.2116 180.959C73.9248 183.47 76.6972 184.533 79.4127 185.673C80.6567 186.198 81.9291 186.765 82.9812 187.618C84.1044 188.527 85.0356 189.654 85.8887 190.815C87.744 193.333 89.3861 195.97 91.9737 197.838C94.81 199.887 98.6274 200.853 101.826 199.02C103.802 197.887 102.011 194.865 100.035 195.998C97.9663 197.187 95.5067 196.124 93.7722 194.816C91.6396 193.207 90.2889 190.808 88.7179 188.716C87.0189 186.45 85.1067 184.47 82.4978 183.225C80.3297 182.19 77.6569 181.574 75.8868 179.874C73.6618 177.741 74.2092 174.264 74.5646 171.529C74.6854 170.592 73.6618 169.78 72.7874 169.78C71.7211 169.787 71.124 170.592 71.0032 171.536Z" fill="black"/>
<path fill-rule="evenodd" clip-rule="evenodd" d="M66.0073 51.5062C58.8856 51.5062 53.1123 57.1874 53.1123 64.1954C53.1123 71.2035 58.8856 76.8846 66.0073 76.8846C73.1291 76.8846 78.9024 71.2035 78.9024 64.1954C78.9024 57.1874 73.1291 51.5062 66.0073 51.5062ZM50.2688 64.1954C50.2688 55.642 57.3152 48.7081 66.0073 48.7081C74.6995 48.7081 81.7459 55.642 81.7459 64.1954C81.7459 72.7488 74.6995 79.6827 66.0073 79.6827C57.3152 79.6827 50.2688 72.7488 50.2688 64.1954Z" fill="black"/>
<path d="M77.032 150.159C75.653 152.677 76.506 156.58 79.1433 158.021C80.8281 158.938 82.7616 158.602 84.4677 157.951C86.188 157.294 87.5955 156.405 87.9296 154.475C88.0718 153.642 88.0078 152.824 88.0078 151.992C88.0078 151.684 88.0575 151.39 88.0718 151.089C88.086 150.844 88.1997 150.949 88.0931 150.956C88.0007 150.97 87.8301 151.082 88.1073 150.949C87.9438 151.026 87.8869 150.858 88.1002 150.97C88.0078 150.921 87.8798 151.012 87.8087 150.893C87.9438 151.117 87.8656 150.844 87.8585 150.9C87.8869 150.655 87.9438 151.215 87.9154 150.97C87.894 150.774 87.9651 151.117 87.9651 151.11C87.9794 151.467 88.0291 151.831 88.022 152.201C87.9865 153.831 87.8585 155.622 89.2163 156.825C90.4816 157.951 92.6142 158.462 94.2705 158.21C98.0949 157.637 99.5522 152.845 97.9883 149.746C96.9718 147.731 93.9008 149.501 94.9174 151.509C95.2159 152.096 95.0951 153.062 94.8036 153.747C94.4553 154.566 93.8724 154.916 92.9056 154.727C92.6142 154.671 92.3156 154.573 92.0455 154.461C91.9033 154.405 91.5052 154.111 91.6474 154.314C91.427 154.006 91.5266 153.405 91.5337 153.027C91.5692 151.726 91.6474 150.383 90.9721 149.207C89.7068 147.004 86.5505 146.962 85.1501 149.033C84.3753 150.173 84.4393 151.565 84.4677 152.88C84.4748 153.23 84.5743 153.88 84.3184 154.188C84.0696 154.489 83.4725 154.615 83.0957 154.748C82.5199 154.95 81.8162 155.216 81.1906 155.097C81.0769 155.076 80.9631 155.034 80.8565 154.985C80.7783 154.951 80.5721 154.762 80.7143 154.888C80.5508 154.741 80.5224 154.699 80.366 154.44C79.9181 153.677 79.7262 152.614 80.0888 151.943C81.1835 149.942 78.1197 148.172 77.032 150.159Z" fill="black"/>
<path d="M98.8912 3.49842C108.339 3.77123 117.807 3.91813 127.248 4.35882C135.344 4.73656 143.59 5.75786 150.87 9.50027C157.203 12.753 162.307 18.0623 164.817 24.7077C166.167 28.2823 166.722 32.0457 166.359 35.844C165.954 40.1041 164.262 44.1263 163.424 48.2954C161.611 57.3541 164.412 66.182 165.712 75.1009C166.864 83.0474 166.068 91.2667 163.054 98.7445C161.781 101.913 160.011 104.963 157.708 107.516C155.689 109.748 153.336 111.651 150.934 113.434C145.844 117.198 140.534 120.828 137.306 126.382C135.43 129.614 134.52 133.133 133.795 136.756C133.176 139.855 132.686 144.073 129.885 146.102C128.641 147.004 127.084 147.312 125.577 147.389C123.516 147.501 121.44 147.389 119.378 147.354C114.473 147.263 109.568 147.116 104.663 146.927C102.296 146.836 99.9362 146.731 97.5761 146.619C95.2872 146.507 95.2943 150.005 97.5761 150.117C102.659 150.362 107.734 150.551 112.824 150.698C115.305 150.767 117.786 150.823 120.274 150.865C122.272 150.9 124.305 151.026 126.295 150.83C128.15 150.656 130.02 150.229 131.584 149.187C133.254 148.074 134.47 146.493 135.273 144.689C136.88 141.065 137.157 137.078 138.223 133.301C139.112 130.139 140.669 127.194 142.844 124.711C144.856 122.416 147.266 120.478 149.697 118.681C152.263 116.785 154.893 114.945 157.303 112.847C159.962 110.524 162.251 107.845 164.021 104.809C168.137 97.7372 169.935 89.287 169.786 81.1867C169.615 72.023 166.167 63.2021 166.359 54.0244C166.452 49.5965 167.881 45.4973 168.954 41.2373C170.035 36.9912 170.354 32.7242 169.551 28.4012C168.215 21.1682 163.871 14.3549 158 9.83604C151.161 4.57568 142.609 2.28825 134.115 1.36489C129.842 0.903213 125.549 0.777308 121.255 0.651395C116.286 0.504497 111.324 0.364586 106.355 0.217688C103.874 0.147736 101.386 0.0707914 98.9055 0.000839782C96.6094 -0.0621166 96.6094 3.43546 98.8912 3.49842Z" fill="black"/>
<path d="M129.686 169.731C119.968 169.731 110.244 169.731 100.526 169.731C98.2371 169.731 98.2371 173.229 100.526 173.229C110.244 173.229 119.968 173.229 129.686 173.229C131.975 173.229 131.975 169.731 129.686 169.731Z" fill="black"/>
<path d="M128.3 171.536C128.62 174.012 129.146 177.153 127.504 179.315C126.075 181.196 123.395 181.91 121.305 182.812C118.731 183.925 116.663 185.54 114.935 187.716C113.215 189.877 111.843 192.389 109.775 194.256C107.997 195.865 105.168 197.348 102.829 196.005C100.846 194.872 99.0548 197.894 101.038 199.027C103.853 200.643 107.187 200.09 109.888 198.509C112.689 196.866 114.495 194.298 116.329 191.724C117.175 190.542 118.035 189.381 119.08 188.36C120.082 187.38 121.241 186.681 122.52 186.093C125.058 184.932 127.916 184.141 129.842 182.008C132.48 179.084 132.337 175.181 131.868 171.536C131.747 170.599 131.136 169.787 130.091 169.787C129.217 169.787 128.179 170.592 128.3 171.536Z" fill="black"/>
<path fill-rule="evenodd" clip-rule="evenodd" d="M131.961 50.8067C124.839 50.8067 119.066 56.4878 119.066 63.4959C119.066 70.504 124.839 76.1851 131.961 76.1851C139.082 76.1851 144.856 70.504 144.856 63.4959C144.856 56.4878 139.082 50.8067 131.961 50.8067ZM116.222 63.4959C116.222 54.9425 123.269 48.0086 131.961 48.0086C140.653 48.0086 147.699 54.9425 147.699 63.4959C147.699 72.0493 140.653 78.9832 131.961 78.9832C123.269 78.9832 116.222 72.0493 116.222 63.4959Z" fill="black"/>
<path d="M119.924 151.922C120.23 152.481 120.145 153.342 119.853 154.027C119.505 154.867 119.121 155.23 118.069 155.055C117.337 154.937 115.73 154.629 115.567 153.803C115.318 152.523 115.744 151.229 115.311 149.949C114.522 147.606 111.536 146.605 109.652 148.417C108.693 149.34 108.444 150.649 108.444 151.915C108.444 152.537 108.536 153.181 108.479 153.81C108.43 154.349 108.479 154.23 108.017 154.433C107.072 154.839 105.963 155 105.423 154.132C104.96 153.391 104.747 152.208 105.103 151.502C106.119 149.494 103.055 147.718 102.032 149.739C100.695 152.397 101.513 156.44 104.406 157.791C106.141 158.602 107.996 158.245 109.681 157.504C111.465 156.72 112.055 155.097 112.034 153.279C112.026 152.642 111.906 151.95 112.005 151.313C112.019 151.201 112.204 150.711 112.041 151.012C112.233 150.669 112.162 150.97 112.069 150.956C112.233 150.865 112.261 150.851 112.147 150.907C112.083 150.949 112.005 150.97 111.92 150.956C112.041 150.942 112.204 151.019 111.913 150.935C111.991 150.956 112.218 150.977 111.927 150.942C111.778 150.921 111.948 151.075 111.884 150.872C112.119 151.607 111.984 152.39 111.984 153.153C111.984 154.937 112.602 156.587 114.301 157.42C115.872 158.189 117.728 158.805 119.491 158.49C123.116 157.847 124.609 153.104 122.995 150.145C121.907 148.179 118.844 149.942 119.924 151.922Z" fill="black"/>
<path d="M94.3499 98.3318C91.9614 105.18 89.5658 112.028 87.1773 118.877C86.8645 119.772 87.5328 120.786 88.4213 121.031C89.3952 121.297 90.2909 120.709 90.6108 119.807C92.9993 112.959 95.3949 106.11 97.7834 99.2622C98.0962 98.3668 97.428 97.3525 96.5394 97.1077C95.5584 96.8418 94.6627 97.4364 94.3499 98.3318Z" fill="black"/>
<path d="M105.352 99.3461C107.15 106.369 108.942 113.392 110.74 120.409C111.294 122.591 114.728 121.668 114.166 119.478C112.368 112.455 110.576 105.432 108.778 98.4157C108.224 96.2332 104.79 97.1566 105.352 99.3461Z" fill="black"/>
</g>
<defs>
<clipPath id="clip0_501_31136">
<rect width="200" height="200" fill="white"/>
</clipPath>
</defs>
</svg>

<svg xmlns="http://www.w3.org/2000/svg" width="200" height="200" fill="none"><g fill="#000" clip-path="url(#a)"><path d="M101.138 0c-9.647.28-19.315.407-28.954.89-8.651.433-17.36 1.678-25.093 5.735-6.825 3.575-12.106 9.339-15.007 16.397-1.507 3.665-2.246 7.695-2.054 11.654.22 4.547 1.805 8.786 2.843 13.179 2.154 9.086-.831 17.991-2.075 26.973-1.16 8.387-.413 17.09 2.8 24.987 1.422 3.497 3.263 6.785 5.751 9.667 2.14 2.483 4.706 4.554 7.33 6.52 4.904 3.679 10.179 7.093 13.214 12.577 1.863 3.365 2.467 7.086 3.256 10.793.796 3.736 1.983 7.702 5.41 9.906 3.355 2.161 7.77 1.671 11.566 1.601a754 754 0 0 0 22.335-.741c2.275-.112 2.289-3.61 0-3.498q-7.441.357-14.893.567c-2.367.07-4.727.126-7.094.168-2.076.042-4.18.161-6.256.021-1.436-.098-2.921-.427-4.094-1.287-1.308-.959-2.069-2.47-2.574-3.96-1.23-3.595-1.478-7.442-2.701-11.045-1.123-3.309-2.886-6.31-5.21-8.94-2.048-2.315-4.486-4.246-6.967-6.099-5.005-3.736-10.123-7.233-13.386-12.676-3.966-6.617-5.615-14.57-5.48-22.195.163-8.898 3.412-17.446 3.433-26.358.014-4.498-1.145-8.71-2.332-13.018-1.066-3.875-1.734-7.786-1.116-11.794 1.06-6.87 5.019-13.312 10.578-17.572C50.723 7.584 58.934 5.548 66.81 4.78c4.151-.406 8.331-.518 12.504-.637 4.905-.14 9.817-.287 14.722-.427 2.367-.07 4.727-.14 7.094-.203 2.289-.077 2.297-3.574.008-3.511M73.173 173.229h29.159c2.289 0 2.289-3.498 0-3.498h-29.16c-2.281 0-2.288 3.498 0 3.498"/><path d="M71.003 171.536c-.405 3.134-.675 6.666 1.209 9.423 1.713 2.511 4.485 3.574 7.2 4.714 1.245.525 2.517 1.092 3.57 1.945 1.122.909 2.054 2.036 2.907 3.197 1.855 2.518 3.497 5.155 6.085 7.023 2.836 2.049 6.653 3.015 9.852 1.182 1.976-1.133.185-4.155-1.791-3.022-2.069 1.189-4.528.126-6.263-1.182-2.132-1.609-3.483-4.008-5.054-6.1-1.7-2.266-3.611-4.246-6.22-5.491-2.168-1.035-4.841-1.651-6.611-3.351-2.225-2.133-1.678-5.61-1.322-8.345.12-.937-.903-1.749-1.778-1.749-1.066.007-1.663.812-1.784 1.756"/><path fill-rule="evenodd" d="M66.007 51.506c-7.121 0-12.895 5.681-12.895 12.69s5.774 12.689 12.895 12.689c7.122 0 12.895-5.681 12.895-12.69S73.13 51.506 66.007 51.506M50.27 64.196c0-8.554 7.046-15.488 15.738-15.488s15.739 6.934 15.739 15.487S74.7 79.683 66.007 79.683c-8.692 0-15.738-6.934-15.738-15.488" clip-rule="evenodd"/><path d="M77.032 150.159c-1.379 2.518-.526 6.421 2.111 7.862 1.685.917 3.619.581 5.325-.07 1.72-.657 3.127-1.546 3.462-3.476.142-.833.078-1.651.078-2.483 0-.308.05-.602.064-.903.014-.245.128-.14.021-.133-.092.014-.263.126.014-.007-.163.077-.22-.091-.007.021-.092-.049-.22.042-.291-.077.135.224.057-.049.05.007.028-.245.085.315.056.07-.021-.196.05.147.05.14.014.357.064.721.057 1.091-.035 1.63-.163 3.421 1.194 4.624 1.266 1.126 3.398 1.637 5.055 1.385 3.824-.573 5.281-5.365 3.717-8.464-1.016-2.015-4.087-.245-3.07 1.763.298.587.177 1.553-.114 2.238-.349.819-.932 1.169-1.898.98a4.5 4.5 0 0 1-.86-.266c-.143-.056-.54-.35-.399-.147-.22-.308-.12-.909-.113-1.287.035-1.301.113-2.644-.562-3.82-1.265-2.203-4.421-2.245-5.822-.174-.775 1.14-.71 2.532-.682 3.847.007.35.106 1-.15 1.308-.248.301-.846.427-1.222.56-.576.202-1.28.468-1.905.349a1.4 1.4 0 0 1-.335-.112c-.078-.034-.284-.223-.142-.097-.163-.147-.192-.189-.348-.448-.448-.763-.64-1.826-.277-2.497 1.094-2.001-1.97-3.771-3.057-1.784"/><path d="M98.891 3.498c9.448.273 18.916.42 28.357.86 8.096.379 16.342 1.4 23.622 5.142 6.333 3.253 11.437 8.562 13.947 15.208 1.35 3.574 1.905 7.338 1.542 11.136-.405 4.26-2.097 8.282-2.935 12.451-1.813 9.06.988 17.887 2.288 26.806 1.152 7.946.356 16.166-2.658 23.644-1.273 3.168-3.043 6.218-5.346 8.771-2.019 2.232-4.372 4.135-6.774 5.918-5.09 3.764-10.4 7.394-13.628 12.948-1.876 3.232-2.786 6.751-3.511 10.374-.619 3.099-1.109 7.317-3.91 9.346-1.244.902-2.801 1.21-4.308 1.287-2.061.112-4.137 0-6.199-.035a738 738 0 0 1-14.715-.427 788 788 0 0 1-7.087-.308c-2.289-.112-2.282 3.386 0 3.498a790 790 0 0 0 15.248.581q3.72.104 7.45.167c1.998.035 4.031.161 6.021-.035 1.855-.174 3.725-.601 5.289-1.643 1.67-1.113 2.886-2.694 3.689-4.498 1.607-3.624 1.884-7.611 2.95-11.388.889-3.162 2.446-6.107 4.621-8.59 2.012-2.295 4.422-4.233 6.853-6.03 2.566-1.896 5.196-3.736 7.606-5.834 2.659-2.323 4.948-5.002 6.718-8.038 4.116-7.072 5.914-15.522 5.765-23.622-.171-9.164-3.619-17.985-3.427-27.163.093-4.428 1.522-8.527 2.595-12.787 1.081-4.246 1.4-8.513.597-12.836-1.336-7.233-5.68-14.046-11.551-18.565-6.839-5.26-15.391-7.548-23.885-8.471-4.273-.462-8.566-.588-12.86-.714-4.969-.147-9.931-.286-14.9-.433-2.481-.07-4.969-.147-7.45-.217-2.296-.063-2.296 3.434-.014 3.497M129.686 169.731h-29.16c-2.289 0-2.289 3.498 0 3.498h29.16c2.289 0 2.289-3.498 0-3.498"/><path d="M128.3 171.536c.32 2.476.846 5.617-.796 7.779-1.429 1.881-4.109 2.595-6.199 3.497-2.574 1.113-4.642 2.728-6.37 4.904-1.72 2.161-3.092 4.673-5.16 6.54-1.778 1.609-4.607 3.092-6.946 1.749-1.983-1.133-3.774 1.889-1.791 3.022 2.815 1.616 6.149 1.063 8.85-.518 2.801-1.643 4.607-4.211 6.441-6.785.846-1.182 1.706-2.343 2.751-3.364 1.002-.98 2.161-1.679 3.44-2.267 2.538-1.161 5.396-1.952 7.322-4.085 2.638-2.924 2.495-6.827 2.026-10.472-.121-.937-.732-1.749-1.777-1.749-.874 0-1.912.805-1.791 1.749"/><path fill-rule="evenodd" d="M131.961 50.807c-7.122 0-12.895 5.68-12.895 12.689 0 7.008 5.773 12.69 12.895 12.69s12.895-5.682 12.895-12.69-5.774-12.69-12.895-12.69m-15.739 12.689c0-8.553 7.047-15.487 15.739-15.487s15.738 6.934 15.738 15.487-7.046 15.487-15.738 15.487-15.739-6.934-15.739-15.487" clip-rule="evenodd"/><path d="M119.924 151.922c.306.559.221 1.42-.071 2.105-.348.84-.732 1.203-1.784 1.028-.732-.118-2.339-.426-2.502-1.252-.249-1.28.177-2.574-.256-3.854-.789-2.343-3.775-3.344-5.659-1.532-.959.923-1.208 2.232-1.208 3.498 0 .622.092 1.266.035 1.895-.049.539 0 .42-.462.623-.945.406-2.054.567-2.594-.301-.463-.741-.676-1.924-.32-2.63 1.016-2.008-2.048-3.784-3.071-1.763-1.337 2.658-.519 6.701 2.374 8.052 1.735.811 3.59.454 5.275-.287 1.784-.784 2.374-2.407 2.353-4.225-.008-.637-.128-1.329-.029-1.966.014-.112.199-.602.036-.301.192-.343.121-.042.028-.056q.248-.135.078-.049a.32.32 0 0 1-.227.049c.121-.014.284.063-.007-.021.078.021.305.042.014.007-.149-.021.021.133-.043-.07.235.735.1 1.518.1 2.281 0 1.784.618 3.434 2.317 4.267 1.571.769 3.427 1.385 5.19 1.07 3.625-.643 5.118-5.386 3.504-8.345-1.088-1.966-4.151-.203-3.071 1.777M94.35 98.332c-2.389 6.848-4.784 13.696-7.173 20.545-.312.895.356 1.909 1.244 2.154.974.266 1.87-.322 2.19-1.224 2.388-6.848 4.784-13.697 7.172-20.545.313-.895-.355-1.91-1.244-2.154-.98-.266-1.876.328-2.19 1.224M105.352 99.346c1.798 7.023 3.59 14.046 5.388 21.063.554 2.182 3.988 1.259 3.426-.931-1.798-7.023-3.59-14.046-5.388-21.062-.554-2.183-3.988-1.26-3.426.93"/></g><defs><clipPath id="a"><path fill="#fff" d="M0 0h200v200H0z"/></clipPath></defs></svg>
